dist/icons/benefits/2.svg

<svg width="60" height="60" viewBox="0 0 60 60" fill="none" xmlns="http://www.w3.org/2000/svg">
<path d="M47.5387 33.969H47.0772C47.8156 32.6767 48.2772 31.1075 48.2772 30.0921C48.2772 27.6921 46.2464 25.6613 43.8464 25.6613C41.4464 25.6613 39.4156 27.6921 39.4156 30.0921C39.4156 31.1075 39.8772 32.6767 40.6156 33.969H40.1541C39.231 33.969 38.4002 34.246 37.6618 34.7075C37.0156 33.1383 35.4464 32.1229 33.6925 32.1229H33.231C33.9695 30.8306 34.431 29.2613 34.431 28.246C34.431 25.846 32.4002 23.8152 30.0002 23.8152C27.6002 23.8152 25.5695 25.846 25.5695 28.246C25.5695 29.2613 26.031 30.8306 26.7695 32.1229H26.3079C24.5541 32.1229 22.9849 33.2306 22.3387 34.7075C21.6002 34.246 20.7695 33.969 19.8464 33.969H19.3849C20.1233 32.6767 20.5849 31.1075 20.5849 30.0921C20.5849 27.6921 18.5541 25.6613 16.1541 25.6613C13.7541 25.6613 11.7233 27.6921 11.7233 30.0921C11.7233 31.1075 12.1849 32.6767 12.9233 33.969H12.4618C10.0618 33.969 8.03101 35.9075 8.03101 38.3998V48.5536C8.03101 48.9229 8.30793 49.2921 8.76947 49.2921H11.7233V58.7998C11.7233 59.169 12.0002 59.5383 12.4618 59.5383H19.9387C20.3079 59.5383 20.6772 59.2613 20.6772 58.7998V40.3383C20.6772 39.969 20.4002 39.5998 19.9387 39.5998C19.4772 39.5998 19.2002 39.8767 19.2002 40.3383V58.1536H16.8002V46.6152C16.8002 46.246 16.5233 45.8767 16.0618 45.8767C15.6002 45.8767 15.3233 46.1536 15.3233 46.6152V57.969H12.9233V40.1536C12.9233 39.7844 12.6464 39.4152 12.1849 39.4152C11.7233 39.4152 11.4464 39.6921 11.4464 40.1536V47.8152H9.23101V38.3075C9.23101 36.646 10.6156 35.2613 12.2772 35.2613H13.7541C14.4002 35.9075 15.1387 36.2767 15.9695 36.2767C16.8002 36.2767 17.5387 35.9075 18.1849 35.2613H19.6618C20.4925 35.2613 21.231 35.6306 21.7849 36.1844C21.7849 36.2767 21.7849 36.369 21.7849 36.4613V45.6921C21.7849 46.0613 22.0618 46.4306 22.5233 46.4306H25.4772V57.7844C25.4772 58.1536 25.7541 58.5229 26.2156 58.5229H33.6925C34.0618 58.5229 34.431 58.246 34.431 57.7844V46.4306H37.3849C37.7541 46.4306 38.1233 46.1536 38.1233 45.6921V36.4613C38.1233 36.369 38.1233 36.2767 38.1233 36.1844C38.6772 35.6306 39.4156 35.2613 40.2464 35.2613H41.7233C42.3695 35.9075 43.1079 36.2767 43.9387 36.2767C44.7695 36.2767 45.5079 35.9075 46.1541 35.2613H47.631C49.2925 35.2613 50.6772 36.646 50.6772 38.3075V47.8152H48.4618V40.1536C48.4618 39.7844 48.1849 39.4152 47.7233 39.4152C47.2618 39.4152 46.9849 39.6921 46.9849 40.1536V57.969H44.5849V46.6152C44.5849 46.246 44.3079 45.8767 43.8464 45.8767C43.3849 45.8767 43.1079 46.1536 43.1079 46.6152V57.969H40.7079V40.1536C40.7079 39.7844 40.431 39.4152 39.9695 39.4152C39.5079 39.4152 39.231 39.6921 39.231 40.1536V58.6152C39.231 58.9844 39.5079 59.3536 39.9695 59.3536H47.4464C47.8156 59.3536 48.1849 59.0767 48.1849 58.6152V49.1998H51.1387C51.5079 49.1998 51.8772 48.9229 51.8772 48.4613V38.3075C51.9695 35.9075 49.9387 33.969 47.5387 33.969ZM16.1541 27.046C17.8156 27.046 19.2002 28.4306 19.2002 30.0921C19.2002 31.2921 18.4618 33.1383 17.5387 34.1536C17.2618 34.4306 16.9849 34.7075 16.6156 34.8921C16.6156 34.8921 16.6156 34.8921 16.5233 34.8921C16.431 34.8921 16.2464 34.9844 16.1541 34.9844C16.0618 34.9844 15.8772 34.9844 15.7849 34.8921C15.7849 34.8921 15.7849 34.8921 15.6925 34.8921C15.3233 34.7075 14.9541 34.4306 14.7695 34.1536C13.8464 33.1383 13.1079 31.2921 13.1079 30.0921C13.1079 28.3383 14.4925 27.046 16.1541 27.046ZM30.0002 25.1998C31.6618 25.1998 33.0464 26.5844 33.0464 28.246C33.0464 29.446 32.3079 31.2921 31.3849 32.3075C31.1079 32.5844 30.831 32.8613 30.4618 33.046C30.4618 33.046 30.4618 33.046 30.3695 33.046C30.2772 33.046 30.0925 33.1383 30.0002 33.1383C29.9079 33.1383 29.7233 33.1383 29.631 33.046C29.631 33.046 29.631 33.046 29.5387 33.046C29.1695 32.8613 28.8002 32.5844 28.6156 32.3075C27.6925 31.2921 26.9541 29.446 26.9541 28.246C26.9541 26.4921 28.3387 25.1998 30.0002 25.1998ZM36.7387 45.046H34.5233V40.1536C34.5233 39.7844 34.2464 39.4152 33.7848 39.4152C33.3233 39.4152 33.0464 39.6921 33.0464 40.1536V57.046H30.6464V44.769C30.6464 44.3998 30.3695 44.0306 29.9079 44.0306C29.4464 44.0306 29.1695 44.3075 29.1695 44.769V57.046H26.7695V40.1536C26.7695 39.7844 26.4925 39.4152 26.031 39.4152C25.5695 39.4152 25.2925 39.6921 25.2925 40.1536V45.046H23.0772V36.4613C23.0772 34.7998 24.4618 33.4152 26.1233 33.4152H27.6002C28.2464 34.0613 28.9848 34.4306 29.8156 34.4306C30.6464 34.4306 31.3849 34.0613 32.031 33.4152H33.5079C35.1695 33.4152 36.5541 34.7998 36.5541 36.4613V45.046H36.7387ZM43.8464 27.046C45.5079 27.046 46.8925 28.4306 46.8925 30.0921C46.8925 31.2921 46.1541 33.1383 45.231 34.1536C44.9541 34.4306 44.6772 34.7075 44.3079 34.8921C44.3079 34.8921 44.3079 34.8921 44.2156 34.8921C44.1233 34.8921 43.9387 34.9844 43.8464 34.9844C43.7541 34.9844 43.5695 34.9844 43.4772 34.8921C43.4772 34.8921 43.4772 34.8921 43.3849 34.8921C43.0156 34.7075 42.6464 34.4306 42.4618 34.1536C41.5387 33.1383 40.8002 31.2921 40.8002 30.0921C40.8002 28.3383 42.1849 27.046 43.8464 27.046Z" fill="black" fill-opacity="0.8"/>
<path d="M54.2771 34.4306C55.1078 31.846 55.5694 29.0768 55.5694 26.3075C55.5694 12.1845 44.1232 0.645996 29.9078 0.645996C15.6924 0.645996 4.43091 12.1845 4.43091 26.3075C4.43091 29.0768 4.89245 31.7537 5.72322 34.4306C5.81552 34.7075 6.09245 34.8921 6.36937 34.8921C6.46168 34.8921 6.55398 34.8921 6.55398 34.8921C6.92322 34.7998 7.10783 34.3383 7.01552 34.0614C6.18475 31.5691 5.81552 28.9845 5.81552 26.3998C5.81552 22.3383 6.83091 18.4614 8.58475 15.046H17.4463C16.8001 17.3537 16.4309 19.9383 16.154 22.6152C16.154 22.9845 16.4309 23.3537 16.8001 23.3537C17.1694 23.3537 17.5386 23.0768 17.5386 22.7075C17.7232 19.9383 18.1848 17.3537 18.9232 14.9537H29.354V20.7691C29.354 21.1383 29.6309 21.5075 30.0924 21.5075C30.554 21.5075 30.8309 21.2306 30.8309 20.7691V14.9537H41.2617C41.9078 17.3537 42.3694 19.9383 42.6463 22.7075C42.6463 23.0768 43.0155 23.3537 43.2924 23.3537C43.2924 23.3537 43.2924 23.3537 43.3848 23.3537C43.754 23.3537 44.0309 22.9845 44.0309 22.6152C43.8463 19.9383 43.3848 17.3537 42.7386 15.046H51.6001C53.354 18.4614 54.3694 22.246 54.3694 26.3998C54.3694 28.9845 53.9078 31.5691 53.1694 34.0614C53.0771 34.4306 53.2617 34.7998 53.6309 34.8921C53.8155 34.9845 54.1848 34.7998 54.2771 34.4306ZM9.41552 13.6614C12.7386 8.21523 18.1848 4.246 24.554 2.76907C21.6924 4.98446 19.3848 8.76907 17.9078 13.6614H9.41552ZM19.2924 13.6614C21.4155 7.10753 25.1078 2.67677 29.2617 2.21523V13.6614H19.2924ZM30.7386 13.6614V2.12292C34.8924 2.58446 38.5848 7.01523 40.7078 13.5691H30.7386V13.6614ZM42.1848 13.6614C40.7078 8.76907 38.3078 4.98446 35.5386 2.76907C41.9078 4.246 47.354 8.21523 50.6771 13.6614H42.1848Z" fill="black" fill-opacity="0.8"/>
</svg>

<svg width="60" height="60" fill="none" xmlns="http://www.w3.org/2000/svg"><path d="M47.539 33.969h-.462c.739-1.292 1.2-2.861 1.2-3.877 0-2.4-2.03-4.43-4.43-4.43s-4.431 2.03-4.431 4.43c0 1.016.461 2.585 1.2 3.877h-.462c-.923 0-1.754.277-2.492.739-.646-1.57-2.216-2.585-3.97-2.585h-.461c.738-1.292 1.2-2.862 1.2-3.877 0-2.4-2.03-4.43-4.43-4.43s-4.431 2.03-4.431 4.43c0 1.015.461 2.585 1.2 3.877h-.462c-1.754 0-3.323 1.108-3.97 2.585-.738-.462-1.569-.739-2.492-.739h-.461c.738-1.292 1.2-2.861 1.2-3.877 0-2.4-2.03-4.43-4.43-4.43s-4.432 2.03-4.432 4.43c0 1.016.462 2.585 1.2 3.877h-.461c-2.4 0-4.431 1.938-4.431 4.43v10.155c0 .369.277.738.738.738h2.954V58.8c0 .369.277.738.739.738h7.477a.728.728 0 00.738-.738V40.338a.728.728 0 00-.738-.738c-.462 0-.739.277-.739.738v17.816h-2.4V46.615a.728.728 0 00-.738-.738c-.462 0-.739.277-.739.738V57.97h-2.4V40.154a.728.728 0 00-.738-.739c-.462 0-.739.277-.739.739v7.661H9.231v-9.508c0-1.661 1.385-3.046 3.046-3.046h1.477c.646.646 1.385 1.016 2.216 1.016.83 0 1.569-.37 2.215-1.016h1.477c.83 0 1.569.37 2.123.923v9.508c0 .37.277.739.738.739h2.954v11.353c0 .37.277.739.739.739h7.477a.728.728 0 00.738-.739V46.431h2.954c.37 0 .738-.277.738-.739v-9.508c.554-.553 1.293-.923 2.123-.923h1.477c.647.646 1.385 1.016 2.216 1.016.83 0 1.569-.37 2.215-1.016h1.477c1.661 0 3.046 1.385 3.046 3.046v9.508h-2.215v-7.661a.728.728 0 00-.739-.739c-.461 0-.738.277-.738.739v17.815h-2.4V46.615a.728.728 0 00-.739-.738c-.461 0-.738.277-.738.738V57.97h-2.4V40.154a.728.728 0 00-.739-.739c-.461 0-.738.277-.738.739v18.461c0 .37.277.739.738.739h7.477c.37 0 .739-.277.739-.739V49.2h2.954a.728.728 0 00.738-.739V38.307c.092-2.4-1.938-4.338-4.338-4.338zm-31.385-6.923c1.662 0 3.046 1.385 3.046 3.046 0 1.2-.738 3.046-1.661 4.062-.277.277-.554.553-.923.738h-.093c-.092 0-.277.092-.369.092-.092 0-.277 0-.37-.092h-.091c-.37-.184-.739-.461-.923-.738-.924-1.016-1.662-2.862-1.662-4.062 0-1.754 1.384-3.046 3.046-3.046zM30 25.2c1.662 0 3.046 1.384 3.046 3.046 0 1.2-.738 3.046-1.661 4.061-.277.277-.554.554-.923.739h-.093c-.092 0-.276.092-.369.092-.092 0-.277 0-.369-.092h-.092c-.37-.185-.739-.462-.923-.739-.924-1.015-1.662-2.861-1.662-4.061 0-1.754 1.385-3.046 3.046-3.046zm6.739 19.846h-2.216v-4.892a.728.728 0 00-.738-.739c-.462 0-.739.277-.739.739v16.892h-2.4V44.769a.728.728 0 00-.738-.738c-.462 0-.739.276-.739.738v12.277h-2.4V40.154a.728.728 0 00-.738-.739c-.461 0-.738.277-.738.739v4.892h-2.216v-8.585c0-1.661 1.385-3.046 3.046-3.046H27.6c.646.646 1.385 1.016 2.216 1.016.83 0 1.569-.37 2.215-1.016h1.477c1.661 0 3.046 1.385 3.046 3.046v8.585h.185zm7.107-18c1.662 0 3.047 1.385 3.047 3.046 0 1.2-.739 3.046-1.662 4.062-.277.277-.554.553-.923.738h-.092c-.093 0-.277.092-.37.092-.092 0-.276 0-.369-.092h-.092c-.37-.184-.739-.461-.923-.738-.923-1.016-1.662-2.862-1.662-4.062 0-1.754 1.385-3.046 3.046-3.046z" fill="#000" fill-opacity=".8"/><path d="M54.277 34.43a26.709 26.709 0 001.292-8.122C55.57 12.185 44.123.646 29.908.646 15.692.646 4.43 12.184 4.43 26.308c0 2.769.461 5.446 1.292 8.123.093.277.37.461.646.461h.185c.37-.092.554-.554.462-.83-.831-2.493-1.2-5.077-1.2-7.662a24.86 24.86 0 012.769-11.354h8.861c-.646 2.308-1.015 4.892-1.292 7.57 0 .369.277.738.646.738.37 0 .739-.277.739-.646.184-2.77.646-5.354 1.384-7.754h10.431v5.815c0 .37.277.739.738.739.462 0 .739-.277.739-.739v-5.815h10.43c.647 2.4 1.108 4.984 1.385 7.753 0 .37.37.647.646.647h.093c.369 0 .646-.37.646-.739a38.072 38.072 0 00-1.292-7.569H51.6c1.754 3.415 2.77 7.2 2.77 11.354 0 2.585-.462 5.17-1.2 7.661-.093.37.092.739.46.831.185.092.555-.092.647-.461zM9.416 13.662c3.323-5.446 8.769-9.415 15.138-10.892-2.862 2.215-5.17 6-6.646 10.892H9.416zm9.876 0c2.123-6.553 5.816-10.984 9.97-11.446v11.446h-9.97zm11.447 0V2.123c4.153.461 7.846 4.892 9.969 11.446h-9.97v.092zm11.446 0C40.708 8.77 38.308 4.984 35.539 2.77c6.369 1.477 11.815 5.446 15.138 10.892h-8.492z" fill="#000" fill-opacity=".8"/></svg>
